X: 3701
T: The Reverend John MacFarlane
P: Quickstep
C:Niel Gow
R:Reel (4x32)
B:RSCDS 37-1
Z:Anselm Lingnau <anselm@strathspey.org>
M:2/4
L:1/16
K:C
|:G2|"C"cBcd c2G2|cBcd c2G2|"Dm"A2fe fe"D7"dc|"G"e2d2 "G7"d2ed|\
   "C"cBcd c2G2|cBcd "C7"c2G2|
                              "F"A3G "G7"F3E|"C"G2"F"C2 "C"C2:|\
ef|"C"g3a g3e|c3d c3G|"Dm"A2fe fedc|"G"e2d2 d2ef|
   "C"g3a g3e|"Am"c3d "C7"c2G2|"F"A3G "G7"F3E|"C"G2"F"C2 "C"C2 "G7"ef|\
   "C"g3a g3e|c3d c3G|
                      "Dm"A2fe fedc|"G"e2d2 d2ed|\
   "C"cBcd c2G2|cBcd "C7"c2G2|"F"A3G "G7"F3E|"C"G2"F"C2 "C"C2|]
%%center Book37/3701-Reverend_John_MacFarlane-AL.abc

%%sep 1 1 500
%%sep 1 1 500

